images/icons/get-started.svg

<svg width="140" height="140" viewBox="0 0 140 140" fill="none" xmlns="http://www.w3.org/2000/svg">
<path fill-rule="evenodd" clip-rule="evenodd" d="M70 138C107.555 138 138 107.555 138 70C138 32.4446 107.555 2 70 2C32.4446 2 2 32.4446 2 70C2 107.555 32.4446 138 70 138ZM70 140C108.66 140 140 108.66 140 70C140 31.3401 108.66 0 70 0C31.3401 0 0 31.3401 0 70C0 108.66 31.3401 140 70 140Z" fill="url(#paint0_linear_1_217)"/>
<path d="M45.904 57.2566C45.58 56.6326 45.13 56.1646 44.554 55.8526C43.978 55.5286 43.312 55.3666 42.556 55.3666C41.728 55.3666 40.99 55.5526 40.342 55.9246C39.694 56.2966 39.184 56.8246 38.812 57.5086C38.452 58.1926 38.272 58.9846 38.272 59.8846C38.272 60.7846 38.452 61.5826 38.812 62.2786C39.184 62.9626 39.694 63.4906 40.342 63.8626C40.99 64.2346 41.728 64.4206 42.556 64.4206C43.672 64.4206 44.578 64.1086 45.274 63.4846C45.97 62.8606 46.396 62.0146 46.552 60.9466H41.854V59.3086H48.748V60.9106C48.616 61.8826 48.268 62.7766 47.704 63.5926C47.152 64.4086 46.426 65.0626 45.526 65.5546C44.638 66.0346 43.648 66.2746 42.556 66.2746C41.38 66.2746 40.306 66.0046 39.334 65.4646C38.362 64.9126 37.588 64.1506 37.012 63.1786C36.448 62.2066 36.166 61.1086 36.166 59.8846C36.166 58.6606 36.448 57.5626 37.012 56.5906C37.588 55.6186 38.362 54.8626 39.334 54.3226C40.318 53.7706 41.392 53.4946 42.556 53.4946C43.888 53.4946 45.07 53.8246 46.102 54.4846C47.146 55.1326 47.902 56.0566 48.37 57.2566H45.904ZM59.8619 60.9646C59.8619 61.3366 59.8379 61.6726 59.7899 61.9726H52.2119C52.2719 62.7646 52.5659 63.4006 53.0939 63.8806C53.6219 64.3606 54.2699 64.6006 55.0379 64.6006C56.1419 64.6006 56.9219 64.1386 57.3779 63.2146H59.5919C59.2919 64.1266 58.7459 64.8766 57.9539 65.4646C57.1739 66.0406 56.2019 66.3286 55.0379 66.3286C54.0899 66.3286 53.2379 66.1186 52.4819 65.6986C51.7379 65.2666 51.1499 64.6666 50.7179 63.8986C50.2979 63.1186 50.0879 62.2186 50.0879 61.1986C50.0879 60.1786 50.2919 59.2846 50.6999 58.5166C51.1199 57.7366 51.7019 57.1366 52.4459 56.7166C53.2019 56.2966 54.0659 56.0866 55.0379 56.0866C55.9739 56.0866 56.8079 56.2906 57.5399 56.6986C58.2719 57.1066 58.8419 57.6826 59.2499 58.4266C59.6579 59.1586 59.8619 60.0046 59.8619 60.9646ZM57.7199 60.3166C57.7079 59.5606 57.4379 58.9546 56.9099 58.4986C56.3819 58.0426 55.7279 57.8146 54.9479 57.8146C54.2399 57.8146 53.6339 58.0426 53.1299 58.4986C52.6259 58.9426 52.3259 59.5486 52.2299 60.3166H57.7199ZM64.2753 57.9226V63.4126C64.2753 63.7846 64.3593 64.0546 64.5273 64.2226C64.7073 64.3786 65.0073 64.4566 65.4273 64.4566H66.6873V66.1666H65.0673C64.1433 66.1666 63.4353 65.9506 62.9433 65.5186C62.4513 65.0866 62.2053 64.3846 62.2053 63.4126V57.9226H61.0353V56.2486H62.2053V53.7826H64.2753V56.2486H66.6873V57.9226H64.2753ZM40.972 89.2926C40.132 89.2926 39.376 89.1486 38.704 88.8606C38.032 88.5606 37.504 88.1406 37.12 87.6006C36.736 87.0606 36.544 86.4306 36.544 85.7106H38.74C38.788 86.2506 38.998 86.6946 39.37 87.0426C39.754 87.3906 40.288 87.5646 40.972 87.5646C41.68 87.5646 42.232 87.3966 42.628 87.0606C43.024 86.7126 43.222 86.2686 43.222 85.7286C43.222 85.3086 43.096 84.9666 42.844 84.7026C42.604 84.4386 42.298 84.2346 41.926 84.0906C41.566 83.9466 41.062 83.7906 40.414 83.6226C39.598 83.4066 38.932 83.1906 38.416 82.9746C37.912 82.7466 37.48 82.3986 37.12 81.9306C36.76 81.4626 36.58 80.8386 36.58 80.0586C36.58 79.3386 36.76 78.7086 37.12 78.1686C37.48 77.6286 37.984 77.2146 38.632 76.9266C39.28 76.6386 40.03 76.4946 40.882 76.4946C42.094 76.4946 43.084 76.8006 43.852 77.4126C44.632 78.0126 45.064 78.8406 45.148 79.8966H42.88C42.844 79.4406 42.628 79.0506 42.232 78.7266C41.836 78.4026 41.314 78.2406 40.666 78.2406C40.078 78.2406 39.598 78.3906 39.226 78.6906C38.854 78.9906 38.668 79.4226 38.668 79.9866C38.668 80.3706 38.782 80.6886 39.01 80.9406C39.25 81.1806 39.55 81.3726 39.91 81.5166C40.27 81.6606 40.762 81.8166 41.386 81.9846C42.214 82.2126 42.886 82.4406 43.402 82.6686C43.93 82.8966 44.374 83.2506 44.734 83.7306C45.106 84.1986 45.292 84.8286 45.292 85.6206C45.292 86.2566 45.118 86.8566 44.77 87.4206C44.434 87.9846 43.936 88.4406 43.276 88.7886C42.628 89.1246 41.86 89.2926 40.972 89.2926ZM50.1073 80.9226V86.4126C50.1073 86.7846 50.1913 87.0546 50.3593 87.2226C50.5393 87.3786 50.8393 87.4566 51.2593 87.4566H52.5193V89.1666H50.8993C49.9753 89.1666 49.2673 88.9506 48.7753 88.5186C48.2833 88.0866 48.0373 87.3846 48.0373 86.4126V80.9226H46.8673V79.2486H48.0373V76.7826H50.1073V79.2486H52.5193V80.9226H50.1073ZM53.7265 84.1626C53.7265 83.1666 53.9305 82.2846 54.3385 81.5166C54.7585 80.7486 55.3225 80.1546 56.0305 79.7346C56.7505 79.3026 57.5425 79.0866 58.4065 79.0866C59.1865 79.0866 59.8645 79.2426 60.4405 79.5546C61.0285 79.8546 61.4965 80.2326 61.8445 80.6886V79.2486H63.9145V89.1666H61.8445V87.6906C61.4965 88.1586 61.0225 88.5486 60.4225 88.8606C59.8225 89.1726 59.1385 89.3286 58.3705 89.3286C57.5185 89.3286 56.7385 89.1126 56.0305 88.6806C55.3225 88.2366 54.7585 87.6246 54.3385 86.8446C53.9305 86.0526 53.7265 85.1586 53.7265 84.1626ZM61.8445 84.1986C61.8445 83.5146 61.7005 82.9206 61.4125 82.4166C61.1365 81.9126 60.7705 81.5286 60.3145 81.2646C59.8585 81.0006 59.3665 80.8686 58.8385 80.8686C58.3105 80.8686 57.8185 81.0006 57.3625 81.2646C56.9065 81.5166 56.5345 81.8946 56.2465 82.3986C55.9705 82.8906 55.8325 83.4786 55.8325 84.1626C55.8325 84.8466 55.9705 85.4466 56.2465 85.9626C56.5345 86.4786 56.9065 86.8746 57.3625 87.1506C57.8305 87.4146 58.3225 87.5466 58.8385 87.5466C59.3665 87.5466 59.8585 87.4146 60.3145 87.1506C60.7705 86.8866 61.1365 86.5026 61.4125 85.9986C61.7005 85.4826 61.8445 84.8826 61.8445 84.1986ZM68.6618 80.6886C68.9618 80.1846 69.3578 79.7946 69.8498 79.5186C70.3538 79.2306 70.9478 79.0866 71.6318 79.0866V81.2106H71.1098C70.3058 81.2106 69.6938 81.4146 69.2738 81.8226C68.8658 82.2306 68.6618 82.9386 68.6618 83.9466V89.1666H66.6098V79.2486H68.6618V80.6886ZM75.912 80.9226V86.4126C75.912 86.7846 75.996 87.0546 76.164 87.2226C76.344 87.3786 76.644 87.4566 77.064 87.4566H78.324V89.1666H76.704C75.78 89.1666 75.072 88.9506 74.58 88.5186C74.088 88.0866 73.842 87.3846 73.842 86.4126V80.9226H72.672V79.2486H73.842V76.7826H75.912V79.2486H78.324V80.9226H75.912ZM89.3052 83.9646C89.3052 84.3366 89.2812 84.6726 89.2332 84.9726H81.6552C81.7152 85.7646 82.0092 86.4006 82.5372 86.8806C83.0652 87.3606 83.7132 87.6006 84.4812 87.6006C85.5852 87.6006 86.3652 87.1386 86.8212 86.2146H89.0352C88.7352 87.1266 88.1892 87.8766 87.3972 88.4646C86.6172 89.0406 85.6452 89.3286 84.4812 89.3286C83.5332 89.3286 82.6812 89.1186 81.9252 88.6986C81.1812 88.2666 80.5932 87.6666 80.1612 86.8986C79.7412 86.1186 79.5312 85.2186 79.5312 84.1986C79.5312 83.1786 79.7352 82.2846 80.1432 81.5166C80.5632 80.7366 81.1452 80.1366 81.8892 79.7166C82.6452 79.2966 83.5092 79.0866 84.4812 79.0866C85.4172 79.0866 86.2512 79.2906 86.9832 79.6986C87.7152 80.1066 88.2852 80.6826 88.6932 81.4266C89.1012 82.1586 89.3052 83.0046 89.3052 83.9646ZM87.1632 83.3166C87.1512 82.5606 86.8812 81.9546 86.3532 81.4986C85.8252 81.0426 85.1712 80.8146 84.3912 80.8146C83.6832 80.8146 83.0772 81.0426 82.5732 81.4986C82.0692 81.9426 81.7692 82.5486 81.6732 83.3166H87.1632ZM90.6406 84.1626C90.6406 83.1666 90.8446 82.2846 91.2526 81.5166C91.6726 80.7486 92.2366 80.1546 92.9446 79.7346C93.6646 79.3026 94.4626 79.0866 95.3386 79.0866C95.9866 79.0866 96.6226 79.2306 97.2466 79.5186C97.8826 79.7946 98.3866 80.1666 98.7586 80.6346V75.8466H100.829V89.1666H98.7586V87.6726C98.4226 88.1526 97.9546 88.5486 97.3546 88.8606C96.7666 89.1726 96.0886 89.3286 95.3206 89.3286C94.4566 89.3286 93.6646 89.1126 92.9446 88.6806C92.2366 88.2366 91.6726 87.6246 91.2526 86.8446C90.8446 86.0526 90.6406 85.1586 90.6406 84.1626ZM98.7586 84.1986C98.7586 83.5146 98.6146 82.9206 98.3266 82.4166C98.0506 81.9126 97.6846 81.5286 97.2286 81.2646C96.7726 81.0006 96.2806 80.8686 95.7526 80.8686C95.2246 80.8686 94.7326 81.0006 94.2766 81.2646C93.8206 81.5166 93.4486 81.8946 93.1606 82.3986C92.8846 82.8906 92.7466 83.4786 92.7466 84.1626C92.7466 84.8466 92.8846 85.4466 93.1606 85.9626C93.4486 86.4786 93.8206 86.8746 94.2766 87.1506C94.7446 87.4146 95.2366 87.5466 95.7526 87.5466C96.2806 87.5466 96.7726 87.4146 97.2286 87.1506C97.6846 86.8866 98.0506 86.5026 98.3266 85.9986C98.6146 85.4826 98.7586 84.8826 98.7586 84.1986Z" fill="url(#paint1_linear_1_217)"/>
<path d="M77.9898 65.2615C77.7559 64.9828 77.7697 64.5786 78.0079 64.3167L78.0784 64.2489L89.0903 55.0089C89.3943 54.7537 89.8477 54.7934 90.1029 55.0975C90.3368 55.3762 90.3229 55.7804 90.0848 56.0423L90.0143 56.1101L79.0024 65.3501C78.6983 65.6053 78.2449 65.5656 77.9898 65.2615Z" fill="white"/>
<path d="M81.3388 55.5797C80.9433 55.546 80.65 55.198 80.6837 54.8025C80.7144 54.4429 81.0048 54.1679 81.3545 54.1462L81.461 54.1475L89.6132 54.843C89.9739 54.8738 90.2493 55.1657 90.2697 55.5165L90.268 55.6233L89.538 63.7732C89.5026 64.1686 89.1534 64.4604 88.758 64.425C88.3986 64.3928 88.1247 64.1012 88.1045 63.7514L88.1062 63.645L88.7714 56.2139L81.3388 55.5797Z" fill="white"/>
<defs>
<linearGradient id="paint0_linear_1_217" x1="93.5405" y1="-125.781" x2="186.413" y2="101.942" gradientUnits="userSpaceOnUse">
<stop offset="0.00887753" stop-color="#DEF9FA"/>
<stop offset="0.1723" stop-color="#BEF3F5"/>
<stop offset="0.4204" stop-color="#9DEDF0"/>
<stop offset="0.5512" stop-color="#7DE7EB"/>
<stop offset="0.7154" stop-color="#5CE1E6"/>
<stop offset="1" stop-color="#33BBCF"/>
</linearGradient>
<linearGradient id="paint1_linear_1_217" x1="91.6243" y1="-0.0495154" x2="116.466" y2="95.291" gradientUnits="userSpaceOnUse">
<stop offset="0.00887753" stop-color="#DEF9FA"/>
<stop offset="0.1723" stop-color="#BEF3F5"/>
<stop offset="0.4204" stop-color="#9DEDF0"/>
<stop offset="0.5512" stop-color="#7DE7EB"/>
<stop offset="0.7154" stop-color="#5CE1E6"/>
<stop offset="1" stop-color="#33BBCF"/>
</linearGradient>
</defs>
</svg>

<svg width="140" height="140" fill="none" xmlns="http://www.w3.org/2000/svg"><path fill-rule="evenodd" clip-rule="evenodd" d="M70 138c37.555 0 68-30.445 68-68S107.555 2 70 2 2 32.445 2 70s30.445 68 68 68Zm0 2c38.66 0 70-31.34 70-70S108.66 0 70 0 0 31.34 0 70s31.34 70 70 70Z" fill="url(#a)"/><path d="M45.904 57.257c-.324-.624-.774-1.092-1.35-1.404-.576-.324-1.242-.486-1.998-.486-.828 0-1.566.186-2.214.558a3.97 3.97 0 0 0-1.53 1.584c-.36.684-.54 1.476-.54 2.376 0 .9.18 1.698.54 2.394a3.97 3.97 0 0 0 1.53 1.584c.648.372 1.386.558 2.214.558 1.116 0 2.022-.312 2.718-.936.696-.624 1.122-1.47 1.278-2.538h-4.698v-1.638h6.894v1.602a6.1 6.1 0 0 1-1.044 2.682 6.136 6.136 0 0 1-2.178 1.962c-.888.48-1.878.72-2.97.72-1.176 0-2.25-.27-3.222-.81a6.24 6.24 0 0 1-2.322-2.286c-.564-.972-.846-2.07-.846-3.294 0-1.224.282-2.322.846-3.294a6.105 6.105 0 0 1 2.322-2.268 6.475 6.475 0 0 1 3.222-.828c1.332 0 2.514.33 3.546.99 1.044.648 1.8 1.572 2.268 2.772h-2.466Zm13.958 3.708c0 .372-.024.708-.072 1.008h-7.578c.06.792.354 1.428.882 1.908s1.176.72 1.944.72c1.104 0 1.884-.462 2.34-1.386h2.214a4.498 4.498 0 0 1-1.638 2.25c-.78.576-1.752.864-2.916.864-.948 0-1.8-.21-2.556-.63a4.708 4.708 0 0 1-1.764-1.8c-.42-.78-.63-1.68-.63-2.7 0-1.02.204-1.914.612-2.682a4.428 4.428 0 0 1 1.746-1.8c.756-.42 1.62-.63 2.592-.63.936 0 1.77.204 2.502.612a4.31 4.31 0 0 1 1.71 1.728c.408.732.612 1.578.612 2.538Zm-2.142-.648c-.012-.756-.282-1.362-.81-1.818-.528-.456-1.182-.684-1.962-.684-.708 0-1.314.228-1.818.684-.504.444-.804 1.05-.9 1.818h5.49Zm6.555-2.394v5.49c0 .372.084.642.252.81.18.156.48.234.9.234h1.26v1.71h-1.62c-.924 0-1.632-.216-2.124-.648-.492-.432-.738-1.134-.738-2.106v-5.49h-1.17v-1.674h1.17v-2.466h2.07v2.466h2.412v1.674h-2.412Zm-23.303 31.37c-.84 0-1.596-.144-2.268-.432-.672-.3-1.2-.72-1.584-1.26-.384-.54-.576-1.17-.576-1.89h2.196c.048.54.258.984.63 1.332.384.348.918.522 1.602.522.708 0 1.26-.168 1.656-.504.396-.348.594-.792.594-1.332 0-.42-.126-.762-.378-1.026a2.375 2.375 0 0 0-.918-.612c-.36-.144-.864-.3-1.512-.468-.816-.216-1.482-.432-1.998-.648a3.381 3.381 0 0 1-1.296-1.044c-.36-.468-.54-1.092-.54-1.872 0-.72.18-1.35.54-1.89.36-.54.864-.954 1.512-1.242.648-.288 1.398-.432 2.25-.432 1.212 0 2.202.306 2.97.918.78.6 1.212 1.428 1.296 2.484H42.88c-.036-.456-.252-.846-.648-1.17-.396-.324-.918-.486-1.566-.486-.588 0-1.068.15-1.44.45-.372.3-.558.732-.558 1.296 0 .384.114.702.342.954.24.24.54.432.9.576.36.144.852.3 1.476.468.828.228 1.5.456 2.016.684.528.228.972.582 1.332 1.062.372.468.558 1.098.558 1.89a3.37 3.37 0 0 1-.522 1.8c-.336.564-.834 1.02-1.494 1.368-.648.336-1.416.504-2.304.504Zm9.135-8.37v5.49c0 .372.084.642.252.81.18.156.48.234.9.234h1.26v1.71H50.9c-.924 0-1.632-.216-2.124-.648-.492-.432-.738-1.134-.738-2.106v-5.49h-1.17v-1.674h1.17v-2.466h2.07v2.466h2.412v1.674h-2.412Zm3.62 3.24c0-.996.204-1.878.612-2.646.42-.768.983-1.362 1.692-1.782a4.532 4.532 0 0 1 2.376-.648c.78 0 1.458.156 2.034.468.587.3 1.055.678 1.403 1.134v-1.44h2.07v9.918h-2.07V87.69c-.348.468-.822.858-1.422 1.17-.6.312-1.283.468-2.051.468a4.406 4.406 0 0 1-2.34-.648 4.81 4.81 0 0 1-1.692-1.836c-.408-.792-.612-1.686-.612-2.682Zm8.117.036c0-.684-.144-1.278-.431-1.782a2.907 2.907 0 0 0-1.098-1.152 2.896 2.896 0 0 0-1.476-.396c-.529 0-1.02.132-1.477.396-.456.252-.828.63-1.116 1.134-.276.492-.413 1.08-.413 1.764 0 .684.138 1.284.413 1.8.288.516.66.912 1.116 1.188.468.264.96.396 1.477.396.528 0 1.02-.132 1.476-.396a2.907 2.907 0 0 0 1.098-1.152c.288-.516.431-1.116.431-1.8Zm6.818-3.51c.3-.504.696-.894 1.188-1.17.504-.288 1.098-.432 1.782-.432v2.124h-.522c-.804 0-1.416.204-1.836.612-.408.408-.612 1.116-.612 2.124v5.22H66.61v-9.918h2.052v1.44Zm7.25.234v5.49c0 .372.084.642.252.81.18.156.48.234.9.234h1.26v1.71h-1.62c-.924 0-1.632-.216-2.124-.648-.492-.432-.738-1.134-.738-2.106v-5.49h-1.17v-1.674h1.17v-2.466h2.07v2.466h2.412v1.674h-2.412Zm13.393 3.042c0 .372-.024.708-.072 1.008h-7.578c.06.792.354 1.428.882 1.908s1.176.72 1.944.72c1.104 0 1.884-.462 2.34-1.386h2.214a4.498 4.498 0 0 1-1.638 2.25c-.78.576-1.752.864-2.916.864-.948 0-1.8-.21-2.556-.63a4.708 4.708 0 0 1-1.764-1.8c-.42-.78-.63-1.68-.63-2.7 0-1.02.204-1.914.612-2.682a4.428 4.428 0 0 1 1.746-1.8c.756-.42 1.62-.63 2.592-.63.936 0 1.77.204 2.502.612a4.31 4.31 0 0 1 1.71 1.728c.408.732.612 1.578.612 2.538Zm-2.142-.648c-.012-.756-.282-1.362-.81-1.818-.528-.456-1.182-.684-1.962-.684-.708 0-1.314.228-1.818.684-.504.444-.804 1.05-.9 1.818h5.49Zm3.478.846c0-.996.204-1.878.612-2.646a4.564 4.564 0 0 1 4.086-2.43 4.51 4.51 0 0 1 1.908.432c.636.276 1.14.648 1.512 1.116v-4.788h2.07v13.32h-2.07v-1.494c-.336.48-.804.876-1.404 1.188-.588.312-1.266.468-2.034.468a4.532 4.532 0 0 1-2.376-.648 4.81 4.81 0 0 1-1.692-1.836c-.408-.792-.612-1.686-.612-2.682Zm8.118.036c0-.684-.144-1.278-.432-1.782a2.907 2.907 0 0 0-1.098-1.152 2.896 2.896 0 0 0-1.476-.396c-.528 0-1.02.132-1.476.396-.456.252-.828.63-1.116 1.134-.276.492-.414 1.08-.414 1.764 0 .684.138 1.284.414 1.8.288.516.66.912 1.116 1.188.468.264.96.396 1.476.396.528 0 1.02-.132 1.476-.396a2.907 2.907 0 0 0 1.098-1.152c.288-.516.432-1.116.432-1.8Z" fill="url(#b)"/><path d="M77.99 65.261a.719.719 0 0 1 .018-.944l.07-.068 11.012-9.24a.719.719 0 0 1 .995 1.033l-.07.068-11.013 9.24a.719.719 0 0 1-1.012-.088Z" fill="#fff"/><path d="M81.339 55.58a.719.719 0 0 1 .016-1.434l.106.002 8.152.695c.36.03.636.323.657.673l-.002.107-.73 8.15a.719.719 0 0 1-1.433-.022l.001-.106.665-7.431-7.432-.634Z" fill="#fff"/><defs><linearGradient id="a" x1="93.54" y1="-125.781" x2="186.413" y2="101.942" gradientUnits="userSpaceOnUse"><stop offset=".009" stop-color="#DEF9FA"/><stop offset=".172" stop-color="#BEF3F5"/><stop offset=".42" stop-color="#9DEDF0"/><stop offset=".551" stop-color="#7DE7EB"/><stop offset=".715" stop-color="#5CE1E6"/><stop offset="1" stop-color="#33BBCF"/></linearGradient><linearGradient id="b" x1="91.624" y1="-.05" x2="116.466" y2="95.291" gradientUnits="userSpaceOnUse"><stop offset=".009" stop-color="#DEF9FA"/><stop offset=".172" stop-color="#BEF3F5"/><stop offset=".42" stop-color="#9DEDF0"/><stop offset=".551" stop-color="#7DE7EB"/><stop offset=".715" stop-color="#5CE1E6"/><stop offset="1" stop-color="#33BBCF"/></linearGradient></defs></svg>
